X:1
T:Long, Long Ago, 10.8.10.8.10.10.10.8
T:Long, Long Ago, 10.8.10.8.10.10.10.8
T:Thomas Haynes Bayly (1797-1839)
T:Public Domain Courtesy of the Cyber Hymnal™
C:Thomas Haynes Bayly (1797-1839)
Z:Public Domain
Z:Courtesy of the Cyber Hymnal™
%%score ( 1 2 ) ( 3 4 )
L:1/8
Q:1/4=103
M:4/4
K:G
V:1 treble 
V:2 treble 
V:3 bass 
V:4 bass 
V:1
|: G2 G[FA] [GB]2 [GB][Fc] | [Gd]2 ed [GB]4 | [Bd]2 [Ac][GB] [FA]4 | [Fc]2 BA G4 :| %4
 [Bd]2 [Ac][GB] [FA]2 DD | [Fc]2 BA G4 | [Gd]2 [Fc][GB] [FA]2 DD | [Fc]2 BA G4 | %8
 G2 G[FA] [GB]2 [GB][Fc] | [Gd]2 ed [GB]4 | [=Fd]2 cB A4 | [Fc]2 BA G4 |] %12
V:2
|: G2 G x5 | x2 G2 x4 | x8 | x2 F2 G4 :| x6 DD | x2 F2 G4 | x6 DD | x2 F2 G4 | G2 G x5 | x2 G2 x4 | %10
 x2 E2 A2 G2 | x2 F2 G4 |] %12
V:3
|: [G,B,]2 D2 D4 | [B,D]2 C[B,D] [G,D]4 | D4 [D,D]4 | [D,E]2 DC [G,B,]4 :| [G,D]2 D2 D4 | %5
 [D,E]2 DC [G,B,]4 | D4 D4 | E2 DC [G,B,]4 | [G,B,]2 [E,B,][D,D] [G,D]2 D2 | [B,D]2 C[B,D] [G,D]4 | %10
 [^G,B,]2 [A,C][B,D] E4 | [D,E]2 DC [G,B,]4 |] %12
V:4
|: x2 B,,D, G,2 G,A, | x2 C x5 | G,2 F,G, x4 | x2 D,2 x4 :| x2 F,G, D,2 D,2 | x2 D,2 x4 | %6
 B,2 A,G, D,2 D,2 | D,4 x4 | x6 G,A, | x2 C x5 | x4 C2 A,2 | x2 D,2 x4 |] %12

